www/assets/icons/edit_location.svg

<svg xmlns="http://www.w3.org/2000/svg" width="24" height="24" viewBox="0 0 24 24" fill='currentColor'><path d="M12 2C8.14 2 5 5.14 5 9c0 5.25 7 13 7 13s7-7.75 7-13c0-3.86-3.14-7-7-7m-1.56 10H9v-1.44l3.35-3.34 1.43 1.43zm4.45-4.45-.7.7-1.44-1.44.7-.7a.38.38 0 0 1 .54 0l.9.9c.15.15.15.39 0 .54"/></svg>

<svg width="24" height="24" viewBox="0 0 24 24" xmlns="http://www.w3.org/2000/svg" fill='currentColor'><path d="M12 2C8.14 2 5 5.14 5 9C5 14.25 12 22 12 22C12 22 19 14.25 19 9C19 5.14 15.86 2 12 2ZM10.44 12H9V10.56L12.35 7.22L13.78 8.65L10.44 12ZM14.89 7.55L14.19 8.25L12.75 6.81L13.45 6.11C13.6 5.96 13.84 5.96 13.99 6.11L14.89 7.01C15.04 7.16 15.04 7.4 14.89 7.55Z"/></svg>
